public/svg/whatsapp-small.svg

<svg width="25" height="24" viewBox="0 0 25 24" fill="none" xmlns="http://www.w3.org/2000/svg">
<path d="M0.163086 23.8857L1.87683 17.5192C0.494738 15.0392 0.0556341 12.1452 0.640093 9.36825C1.22455 6.59133 2.79337 4.11778 5.05867 2.40149C7.32396 0.685201 10.1338 -0.158695 12.9725 0.0246556C15.8113 0.208007 18.4885 1.40631 20.513 3.39967C22.5375 5.39302 23.7734 8.04773 23.9939 10.8766C24.2144 13.7056 23.4048 16.5189 21.7136 18.8005C20.0224 21.082 17.563 22.6787 14.7868 23.2976C12.0106 23.9164 9.1038 23.5159 6.59974 22.1696L0.163086 23.8857ZM6.91011 19.7872L7.30818 20.0227C9.12192 21.0951 11.2403 21.5388 13.3333 21.2848C15.4263 21.0308 17.3762 20.0934 18.8793 18.6186C20.3824 17.1438 21.3541 15.2145 21.6431 13.1313C21.9321 11.0481 21.5221 8.92805 20.477 7.10154C19.432 5.27503 17.8105 3.84466 15.8653 3.03332C13.9201 2.22199 11.7605 2.07526 9.72297 2.61602C7.68545 3.15677 5.8845 4.35462 4.60077 6.02291C3.31703 7.69119 2.62262 9.7362 2.62575 11.8392C2.62404 13.583 3.10753 15.293 4.02238 16.779L4.27202 17.1895L3.31395 20.7428L6.91011 19.7872Z" fill="#00D95F"/>
<path fill-rule="evenodd" clip-rule="evenodd" d="M16.3791 13.6602C16.1458 13.4725 15.8725 13.3403 15.5802 13.2738C15.2879 13.2074 14.9843 13.2083 14.6924 13.2766C14.2538 13.4583 13.9704 14.1447 13.6871 14.488C13.6273 14.5702 13.5395 14.6279 13.4401 14.6502C13.3407 14.6726 13.2366 14.6579 13.1473 14.6091C11.5417 13.9819 10.1959 12.8316 9.32848 11.3451C9.2545 11.2524 9.21948 11.1346 9.23081 11.0166C9.24213 10.8986 9.29892 10.7896 9.38921 10.7125C9.70526 10.4004 9.93732 10.0139 10.0639 9.58863C10.092 9.11956 9.98428 8.65233 9.75355 8.24266C9.57517 7.6683 9.23569 7.15688 8.77523 6.76882C8.53773 6.66227 8.2744 6.62655 8.01701 6.66596C7.75961 6.70536 7.51915 6.81822 7.32462 6.9909C6.98691 7.28153 6.71886 7.64401 6.5402 8.05165C6.36155 8.4593 6.27684 8.90173 6.29232 9.34635C6.29337 9.59604 6.32509 9.84465 6.38678 10.0866C6.54345 10.668 6.78439 11.2235 7.10197 11.7355C7.33109 12.1276 7.58109 12.5073 7.85089 12.8728C8.72769 14.0734 9.82986 15.0928 11.0962 15.8743C11.7317 16.2715 12.4108 16.5944 13.1203 16.8367C13.8573 17.1699 14.671 17.2978 15.475 17.2068C15.9331 17.1377 16.3672 16.9573 16.7389 16.6815C17.1107 16.4057 17.4088 16.043 17.6071 15.6253C17.7236 15.373 17.7589 15.0909 17.7083 14.8177C17.5868 14.2591 16.8379 13.9294 16.3791 13.6602Z" fill="#00D95F"/>
</svg>

<svg xmlns="http://www.w3.org/2000/svg" width="25" height="24" fill="none"><path fill="#00D95F" d="m.163 23.886 1.714-6.367A11.76 11.76 0 0 1 .64 9.37 11.8 11.8 0 0 1 5.06 2.4a11.84 11.84 0 0 1 15.454.999 11.77 11.77 0 0 1 1.2 15.4 11.82 11.82 0 0 1-6.926 4.498A11.85 11.85 0 0 1 6.6 22.17zm6.747-4.099.398.236a9.57 9.57 0 0 0 11.571-1.404 9.509 9.509 0 0 0 1.598-11.517 9.55 9.55 0 0 0-4.612-4.069 9.58 9.58 0 0 0-6.142-.417 9.56 9.56 0 0 0-5.122 3.407 9.5 9.5 0 0 0-1.975 5.816 9.4 9.4 0 0 0 1.396 4.94l.25.41-.958 3.554z"/><path fill="#00D95F" fill-rule="evenodd" d="M16.38 13.66a1.97 1.97 0 0 0-1.688-.383c-.438.181-.722.868-1.005 1.211a.42.42 0 0 1-.54.121 7.64 7.64 0 0 1-3.819-3.264.457.457 0 0 1 .061-.633c.316-.312.548-.698.675-1.123.028-.47-.08-.937-.31-1.346a3.15 3.15 0 0 0-.979-1.474 1.35 1.35 0 0 0-1.45.222 2.98 2.98 0 0 0-1.033 2.355q.002.377.095.74c.156.582.397 1.137.715 1.65q.345.588.749 1.137c.877 1.2 1.979 2.22 3.245 3.001.636.397 1.315.72 2.024.963a4.5 4.5 0 0 0 2.355.37 2.83 2.83 0 0 0 2.132-1.582c.117-.252.152-.534.101-.807-.121-.559-.87-.889-1.329-1.158" clip-rule="evenodd"/></svg>
